flaticon/medical/pills-3.svg

<svg xmlns="http://www.w3.org/2000/svg" width="32" height="32" viewBox="0 0 24 24">
    <path d="M12 3.601562C12.222656 3.601562 12.398438 3.421875 12.398438 3.199219L12.398438 2.398438C12.398438 2.179688 12.222656 2 12 2 11.777344 2 11.601562 2.179688 11.601562 2.398438L11.601562 3.199219C11.601562 3.421875 11.777344 3.601562 12 3.601562zM12 14.398438C12.222656 14.398438 12.398438 14.222656 12.398438 14L12.398438 13.199219C12.398438 12.980469 12.222656 12.800781 12 12.800781 11.777344 12.800781 11.601562 12.980469 11.601562 13.199219L11.601562 14C11.601562 14.222656 11.777344 14.398438 12 14.398438zM12 7.199219C12.222656 7.199219 12.398438 7.019531 12.398438 6.800781L12.398438 6C12.398438 5.777344 12.222656 5.601562 12 5.601562 11.777344 5.601562 11.601562 5.777344 11.601562 6L11.601562 6.800781C11.601562 7.019531 11.777344 7.199219 12 7.199219zM12 18C12.222656 18 12.398438 17.820312 12.398438 17.601562L12.398438 16.800781C12.398438 16.578125 12.222656 16.398438 12 16.398438 11.777344 16.398438 11.601562 16.578125 11.601562 16.800781L11.601562 17.601562C11.601562 17.820312 11.777344 18 12 18zM12 21.601562C12.222656 21.601562 12.398438 21.421875 12.398438 21.199219L12.398438 20.398438C12.398438 20.179688 12.222656 20 12 20 11.777344 20 11.601562 20.179688 11.601562 20.398438L11.601562 21.199219C11.601562 21.421875 11.777344 21.601562 12 21.601562zM12 10.800781C12.222656 10.800781 12.398438 10.621094 12.398438 10.398438L12.398438 9.601562C12.398438 9.378906 12.222656 9.199219 12 9.199219 11.777344 9.199219 11.601562 9.378906 11.601562 9.601562L11.601562 10.398438C11.601562 10.621094 11.777344 10.800781 12 10.800781zM12 10.800781"/>
    <path d="M 21.199219 0 L 2.800781 0 C 2.578125 0 2.398438 0.179688 2.398438 0.398438 L 2.398438 23.601562 C 2.398438 23.820312 2.578125 24 2.800781 24 L 21.199219 24 C 21.421875 24 21.601562 23.820312 21.601562 23.601562 L 21.601562 0.398438 C 21.601562 0.179688 21.421875 0 21.199219 0 Z M 20.800781 23.199219 L 3.199219 23.199219 L 3.199219 0.800781 L 20.800781 0.800781 Z M 20.800781 23.199219"/>
    <path d="M6 5.601562L8.398438 5.601562C8.40625 5.601562 8.410156 5.601562 8.414062 5.601562 9.5 5.601562 10.390625 4.722656 10.398438 3.632812 10.40625 3.101562 10.199219 2.597656 9.816406 2.210938 9.433594 1.820312 8.933594 1.605469 8.398438 1.601562L6.003906 1.601562C5.996094 1.601562 5.992188 1.601562 5.984375 1.601562 4.898438 1.601562 4.011719 2.476562 4 3.566406 3.996094 4.097656 4.203125 4.601562 4.582031 4.992188 4.964844 5.378906 5.46875 5.59375 6 5.601562zM9.246094 2.769531C9.476562 3.007812 9.601562 3.308594 9.601562 3.625 9.59375 4.273438 9.0625 4.800781 8.414062 4.800781 8.410156 4.800781 8.40625 4.800781 8.398438 4.800781L7.601562 4.800781 7.601562 2.398438 8.394531 2.398438C8.710938 2.402344 9.015625 2.535156 9.246094 2.769531zM5.988281 2.398438C5.992188 2.398438 5.996094 2.398438 6 2.398438L6.800781 2.398438 6.800781 4.800781 6.003906 4.800781C5.6875 4.796875 5.386719 4.664062 5.152344 4.429688 4.921875 4.195312 4.796875 3.890625 4.800781 3.574219 4.808594 2.925781 5.335938 2.398438 5.988281 2.398438zM6 11.199219L8.398438 11.199219C8.40625 11.199219 8.410156 11.199219 8.414062 11.199219 9.5 11.199219 10.390625 10.320312 10.398438 9.230469 10.40625 8.703125 10.199219 8.199219 9.816406 7.808594 9.433594 7.421875 8.933594 7.207031 8.398438 7.199219L6.003906 7.199219C4.914062 7.199219 4.011719 8.070312 4 9.167969 3.996094 9.695312 4.203125 10.203125 4.582031 10.589844 4.964844 10.976562 5.46875 11.195312 6 11.199219zM9.246094 8.371094C9.476562 8.605469 9.601562 8.910156 9.601562 9.222656 9.59375 9.875 9.0625 10.402344 8.414062 10.398438 8.410156 10.398438 8.40625 10.398438 8.398438 10.398438L7.601562 10.398438 7.601562 8 8.394531 8C8.710938 8.003906 9.015625 8.136719 9.246094 8.371094zM5.988281 8C5.992188 8 5.996094 8 6 8L6.800781 8 6.800781 10.398438 6.003906 10.398438C5.6875 10.398438 5.386719 10.265625 5.152344 10.03125 4.921875 9.792969 4.796875 9.492188 4.800781 9.175781 4.808594 8.523438 5.335938 8 5.988281 8zM6 16.800781L8.398438 16.800781C8.40625 16.800781 8.410156 16.800781 8.414062 16.800781 9.5 16.800781 10.390625 15.921875 10.398438 14.832031 10.40625 14.304688 10.199219 13.796875 9.816406 13.410156 9.433594 13.023438 8.933594 12.804688 8.398438 12.800781L6.003906 12.800781C5.996094 12.800781 5.992188 12.800781 5.984375 12.800781 4.898438 12.800781 4.011719 13.679688 4 14.769531 3.996094 15.296875 4.203125 15.800781 4.585938 16.191406 4.964844 16.578125 5.46875 16.792969 6 16.800781zM9.246094 13.96875C9.476562 14.207031 9.601562 14.507812 9.601562 14.824219 9.59375 15.476562 9.0625 16 8.414062 16 8.410156 16 8.40625 16 8.398438 16L7.601562 16 7.601562 13.601562 8.394531 13.601562C8.710938 13.601562 9.015625 13.734375 9.246094 13.96875zM5.988281 13.601562C5.992188 13.601562 5.996094 13.601562 6 13.601562L6.800781 13.601562 6.800781 16 6.003906 16C5.6875 15.996094 5.386719 15.863281 5.152344 15.628906 4.921875 15.394531 4.796875 15.089844 4.800781 14.777344 4.808594 14.125 5.335938 13.601562 5.988281 13.601562zM6 22.398438L8.398438 22.398438C8.40625 22.398438 8.410156 22.398438 8.414062 22.398438 9.5 22.398438 10.390625 21.523438 10.398438 20.433594 10.40625 19.902344 10.199219 19.398438 9.816406 19.007812 9.433594 18.621094 8.933594 18.40625 8.398438 18.398438L6.003906 18.398438C4.914062 18.398438 4.011719 19.273438 4 20.367188 3.996094 20.898438 4.203125 21.402344 4.582031 21.789062 4.964844 22.179688 5.46875 22.394531 6 22.398438zM9.246094 19.570312C9.476562 19.804688 9.601562 20.109375 9.601562 20.425781 9.59375 21.074219 9.0625 21.601562 8.414062 21.601562 8.410156 21.601562 8.40625 21.601562 8.398438 21.601562L7.601562 21.601562 7.601562 19.199219 8.394531 19.199219C8.710938 19.203125 9.015625 19.335938 9.246094 19.570312zM5.988281 19.199219C5.992188 19.199219 5.996094 19.199219 6 19.199219L6.800781 19.199219 6.800781 21.601562 6.003906 21.601562C5.6875 21.597656 5.386719 21.464844 5.152344 21.230469 4.921875 20.992188 4.796875 20.691406 4.800781 20.375 4.808594 19.726562 5.335938 19.199219 5.988281 19.199219zM15.601562 5.601562L18 5.601562C18.003906 5.601562 18.011719 5.601562 18.015625 5.601562 19.101562 5.601562 19.988281 4.722656 20 3.632812 20.003906 3.101562 19.796875 2.597656 19.417969 2.210938 19.035156 1.820312 18.53125 1.605469 18 1.601562L15.605469 1.601562C15.597656 1.601562 15.589844 1.601562 15.585938 1.601562 14.5 1.601562 13.613281 2.476562 13.601562 3.566406 13.59375 4.097656 13.800781 4.601562 14.183594 4.992188 14.566406 5.378906 15.066406 5.59375 15.601562 5.601562zM18.84375 2.769531C19.078125 3.007812 19.203125 3.308594 19.199219 3.625 19.191406 4.273438 18.664062 4.800781 18.015625 4.800781 18.011719 4.800781 18.007812 4.800781 18 4.800781L17.199219 4.800781 17.199219 2.398438 17.996094 2.398438C18.3125 2.402344 18.613281 2.535156 18.84375 2.769531zM15.589844 2.398438C15.59375 2.398438 15.597656 2.398438 15.601562 2.398438L16.398438 2.398438 16.398438 4.800781 15.605469 4.800781C15.289062 4.796875 14.984375 4.664062 14.753906 4.429688 14.523438 4.195312 14.398438 3.890625 14.398438 3.574219 14.40625 2.925781 14.9375 2.398438 15.589844 2.398438zM15.601562 11.199219L18 11.199219C18.003906 11.199219 18.011719 11.199219 18.015625 11.199219 19.101562 11.199219 19.988281 10.320312 20 9.230469 20.003906 8.703125 19.796875 8.199219 19.417969 7.808594 19.035156 7.421875 18.53125 7.207031 18 7.199219L15.605469 7.199219C14.511719 7.199219 13.613281 8.070312 13.601562 9.167969 13.59375 9.695312 13.800781 10.203125 14.183594 10.589844 14.566406 10.976562 15.066406 11.195312 15.601562 11.199219zM18.84375 8.371094C19.078125 8.605469 19.203125 8.910156 19.199219 9.222656 19.191406 9.875 18.664062 10.402344 18.015625 10.398438 18.011719 10.398438 18.007812 10.398438 18 10.398438L17.199219 10.398438 17.199219 8 17.996094 8C18.3125 8.003906 18.613281 8.136719 18.84375 8.371094zM15.589844 8C15.59375 8 15.597656 8 15.601562 8L16.398438 8 16.398438 10.398438 15.605469 10.398438C15.289062 10.398438 14.984375 10.265625 14.753906 10.03125 14.523438 9.792969 14.394531 9.492188 14.398438 9.175781 14.40625 8.523438 14.9375 8 15.589844 8zM15.601562 16.800781L18 16.800781C18.003906 16.800781 18.011719 16.800781 18.015625 16.800781 19.101562 16.800781 19.988281 15.921875 20 14.832031 20.003906 14.304688 19.796875 13.796875 19.417969 13.410156 19.035156 13.023438 18.53125 12.804688 18 12.800781L15.605469 12.800781C15.597656 12.800781 15.589844 12.800781 15.585938 12.800781 14.5 12.800781 13.613281 13.679688 13.601562 14.769531 13.59375 15.296875 13.800781 15.800781 14.183594 16.191406 14.566406 16.578125 15.066406 16.792969 15.601562 16.800781zM18.84375 13.96875C19.078125 14.207031 19.203125 14.507812 19.199219 14.824219 19.191406 15.476562 18.664062 16 18.015625 16 18.011719 16 18.007812 16 18 16L17.199219 16 17.199219 13.601562 17.996094 13.601562C18.3125 13.601562 18.613281 13.734375 18.84375 13.96875zM15.589844 13.601562C15.59375 13.601562 15.597656 13.601562 15.601562 13.601562L16.398438 13.601562 16.398438 16 15.605469 16C15.289062 15.996094 14.984375 15.863281 14.753906 15.628906 14.523438 15.394531 14.394531 15.089844 14.398438 14.777344 14.40625 14.125 14.9375 13.601562 15.589844 13.601562zM15.601562 22.398438L18 22.398438C18.003906 22.398438 18.011719 22.398438 18.015625 22.398438 19.101562 22.398438 19.988281 21.523438 20 20.433594 20.003906 19.902344 19.796875 19.398438 19.417969 19.007812 19.035156 18.621094 18.53125 18.40625 18 18.398438L15.605469 18.398438C14.511719 18.398438 13.613281 19.273438 13.601562 20.367188 13.59375 20.898438 13.800781 21.402344 14.183594 21.789062 14.566406 22.179688 15.066406 22.394531 15.601562 22.398438zM18.84375 19.570312C19.078125 19.804688 19.203125 20.109375 19.199219 20.425781 19.191406 21.074219 18.664062 21.601562 18.015625 21.601562 18.011719 21.601562 18.007812 21.601562 18 21.601562L17.199219 21.601562 17.199219 19.199219 17.996094 19.199219C18.3125 19.203125 18.613281 19.335938 18.84375 19.570312zM15.589844 19.199219C15.59375 19.199219 15.597656 19.199219 15.601562 19.199219L16.398438 19.199219 16.398438 21.601562 15.605469 21.601562C15.289062 21.597656 14.984375 21.464844 14.753906 21.230469 14.523438 20.992188 14.394531 20.691406 14.398438 20.375 14.40625 19.726562 14.9375 19.199219 15.589844 19.199219zM15.589844 19.199219"/>
</svg>

<svg xmlns="http://www.w3.org/2000/svg" width="32" height="32" viewBox="0 0 24 24">
    <path d="M12 3.602c.223 0 .398-.18.398-.403v-.8a.398.398 0 1 0-.796 0v.8c0 .223.175.403.398.403zm0 0M12 14.398a.395.395 0 0 0 .398-.398v-.8a.398.398 0 1 0-.796 0v.8c0 .223.175.398.398.398zm0 0M12 7.2c.223 0 .398-.18.398-.4V6A.395.395 0 0 0 12 5.602a.395.395 0 0 0-.398.398v.8c0 .22.175.4.398.4zm0 0M12 18c.223 0 .398-.18.398-.398V16.8a.398.398 0 1 0-.796 0v.8c0 .22.175.399.398.399zm0 0M12 21.602c.223 0 .398-.18.398-.403v-.8a.398.398 0 1 0-.796 0v.8c0 .223.175.403.398.403zm0 0M12 10.8c.223 0 .398-.179.398-.402v-.796a.398.398 0 1 0-.796 0v.796c0 .223.175.403.398.403zm0 0"/>
    <path d="M21.2 0H2.8a.401.401 0 0 0-.402.398v23.204c0 .218.18.398.403.398h18.398c.223 0 .403-.18.403-.398V.398A.401.401 0 0 0 21.199 0zm-.4 23.2H3.2V.8h17.6zm0 0"/>
    <path d="M6 5.602h2.414A1.986 1.986 0 0 0 9.816 2.21a1.989 1.989 0 0 0-1.418-.61H5.984A1.986 1.986 0 0 0 4 3.567a2.016 2.016 0 0 0 .582 1.426c.383.387.887.602 1.418.61zM9.246 2.77c.23.238.356.539.356.855a1.192 1.192 0 0 1-1.188 1.176h-.812V2.398h.793c.316.004.62.137.851.372zm-3.258-.372H6.8v2.403h-.796a1.224 1.224 0 0 1-.852-.371 1.196 1.196 0 0 1-.351-.856 1.19 1.19 0 0 1 1.187-1.176zm0 0M6 11.2h2.414a1.986 1.986 0 0 0 1.402-3.391 2.021 2.021 0 0 0-1.418-.61H6.004C4.914 7.2 4.012 8.07 4 9.168a2.007 2.007 0 0 0 .582 1.422c.383.387.887.605 1.418.61zM9.246 8.37c.23.234.356.54.356.852a1.187 1.187 0 0 1-1.188 1.175h-.812V8h.793c.316.004.62.137.851.371zM5.988 8H6.8v2.398h-.796c-.316 0-.617-.132-.852-.367A1.187 1.187 0 0 1 5.988 8zm0 0M6 16.8h2.414a1.986 1.986 0 0 0 1.402-3.39 2.005 2.005 0 0 0-1.418-.61H5.984A1.989 1.989 0 0 0 4 14.77a2.001 2.001 0 0 0 .586 1.421c.379.387.883.602 1.414.61zm3.246-2.831c.23.238.356.539.356.855A1.19 1.19 0 0 1 8.414 16h-.812v-2.398h.793c.316 0 .62.132.851.367zm-3.258-.367H6.8V16h-.796a1.224 1.224 0 0 1-.852-.371 1.194 1.194 0 0 1-.351-.852 1.187 1.187 0 0 1 1.187-1.175zm0 0M6 22.398h2.414a1.983 1.983 0 0 0 1.984-1.964 1.983 1.983 0 0 0-.582-1.426 2.021 2.021 0 0 0-1.418-.61H6.004A2 2 0 0 0 4 20.368a2 2 0 0 0 .582 1.421c.383.39.887.606 1.418.61zm3.246-2.828c.23.235.356.54.356.856a1.192 1.192 0 0 1-1.188 1.176h-.812v-2.403h.793c.316.004.62.137.851.371zm-3.258-.37H6.8v2.402h-.796a1.224 1.224 0 0 1-.852-.372 1.203 1.203 0 0 1-.351-.855 1.19 1.19 0 0 1 1.187-1.176zm0 0M15.602 5.602h2.414A1.989 1.989 0 0 0 20 3.632a2 2 0 0 0-.582-1.421A1.996 1.996 0 0 0 18 1.6h-2.415a1.986 1.986 0 0 0-1.401 3.391c.382.387.882.602 1.418.61zm3.242-2.832c.234.238.36.539.355.855a1.189 1.189 0 0 1-1.183 1.176H17.2V2.398h.796c.317.004.617.137.848.372zm-3.254-.372h.808v2.403h-.793a1.217 1.217 0 0 1-.851-.371 1.217 1.217 0 0 1-.356-.856 1.193 1.193 0 0 1 1.192-1.176zm0 0M15.602 11.2h2.414A1.989 1.989 0 0 0 20 9.23a2.014 2.014 0 0 0-.582-1.421A2.028 2.028 0 0 0 18 7.199h-2.395a1.996 1.996 0 0 0-2.003 1.969c-.008.527.199 1.035.582 1.422.382.387.882.605 1.418.61zm3.242-2.829a1.182 1.182 0 0 1-.828 2.027H17.2V8h.796c.317.004.617.137.848.371zM15.59 8h.808v2.398h-.793c-.316 0-.62-.132-.851-.367-.23-.238-.36-.539-.356-.855A1.19 1.19 0 0 1 15.59 8zm0 0M15.602 16.8h2.414A1.989 1.989 0 0 0 20 14.833a2.007 2.007 0 0 0-.582-1.422A2.012 2.012 0 0 0 18 12.8h-2.415a1.989 1.989 0 0 0-1.983 1.97c-.008.527.199 1.03.582 1.421.382.387.882.602 1.418.61zm3.242-2.831A1.186 1.186 0 0 1 18.016 16H17.2v-2.398h.796c.317 0 .617.132.848.367zm-3.254-.367h.808V16h-.793a1.217 1.217 0 0 1-.851-.371c-.23-.234-.36-.54-.356-.852a1.19 1.19 0 0 1 1.192-1.175zm0 0M15.602 22.398h2.414A1.986 1.986 0 0 0 20 20.434a2.016 2.016 0 0 0-.582-1.426 2.028 2.028 0 0 0-1.418-.61h-2.395a1.998 1.998 0 0 0-2.003 1.97c-.008.53.199 1.034.582 1.421.382.39.882.606 1.418.61zm3.242-2.828a1.184 1.184 0 0 1-.828 2.032H17.2v-2.403h.796c.317.004.617.137.848.371zm-3.254-.37h.808v2.402h-.793a1.217 1.217 0 0 1-.851-.372c-.23-.238-.36-.539-.356-.855a1.193 1.193 0 0 1 1.192-1.176zm0 0"/>
</svg>
